src/lib/packages/icons/src/assets/filled/star-slash.svg

<svg width="24" height="24" viewBox="0 0 24 24" fill="none" xmlns="http://www.w3.org/2000/svg">
<path d="M21.5301 3.53005L3.53005 21.526C3.38405 21.672 3.19202 21.746 3.00002 21.746C2.80802 21.746 2.61599 21.673 2.46999 21.526C2.17699 21.233 2.17699 20.7581 2.46999 20.4651L6.69106 16.245L6.82998 15.437C6.88998 15.117 6.78007 14.787 6.55007 14.557L3.30007 11.408C2.71007 10.838 3.04001 9.82803 3.86001 9.70803L8.33999 9.05801C8.66999 9.00801 8.95 8.80802 9.1 8.50802L11.0401 4.59902C11.4301 3.79902 12.57 3.79902 12.96 4.59902L14.744 8.19399L20.47 2.46902C20.764 2.17502 21.239 2.17702 21.531 2.46902C21.823 2.76302 21.8231 3.23805 21.5301 3.53005ZM20.14 9.70901L18.668 9.50002C18.575 9.48702 18.48 9.51805 18.414 9.58505C18.414 9.58505 7.38098 20.616 7.28298 20.713C7.16198 20.834 7.27606 20.997 7.41006 20.961C7.49006 20.939 7.57107 20.908 7.64907 20.867L11.5291 18.837C11.8291 18.687 12.169 18.687 12.469 18.837L16.349 20.877C17.139 21.287 18.0591 20.617 17.9091 19.747L17.169 15.438C17.109 15.118 17.219 14.788 17.449 14.558L20.693 11.414C21.291 10.836 20.962 9.82501 20.14 9.70901Z" fill="currentColor"/>
</svg>

<svg xmlns="http://www.w3.org/2000/svg" width="24" height="24" fill="none"><path fill="currentColor" d="m21.53 3.53-18 17.996a.748.748 0 0 1-1.06 0 .75.75 0 0 1 0-1.06l4.221-4.221.139-.808a.993.993 0 0 0-.28-.88L3.3 11.408c-.59-.57-.26-1.58.56-1.7l4.48-.65c.33-.05.61-.25.76-.55l1.94-3.909c.39-.8 1.53-.8 1.92 0l1.784 3.595 5.726-5.725a.75.75 0 1 1 1.06 1.061Zm-1.39 6.18-1.472-.21a.3.3 0 0 0-.254.085L7.283 20.713c-.121.121-.007.284.127.248a1.23 1.23 0 0 0 .24-.094l3.88-2.03c.3-.15.639-.15.939 0l3.88 2.04c.79.41 1.71-.26 1.56-1.13l-.74-4.309c-.06-.32.05-.65.28-.88l3.244-3.144a.997.997 0 0 0-.553-1.705Z"/></svg>
